assets/eyecam-co.svg

<svg width="88" height="88" viewBox="0 0 88 88" fill="none" xmlns="http://www.w3.org/2000/svg">
<g id="eyecam-co.">
<g id="Oval" filter="url(#filter0_i)">
<circle cx="44" cy="44" r="44" fill="url(#paint0_linear)"/>
</g>
<g id="EYECAM 2">
<path id="EYECAM" fill-rule="evenodd" clip-rule="evenodd" d="M71.5316 43.4732C71.569 43.7971 71.596 43.9947 71.6126 44.0662L72.6224 48.6278H74L71.7934 39L69.1629 44.8233C69.138 44.8822 69.1006 44.9664 69.0507 45.0757C68.8637 45.4837 68.7265 45.8202 68.6393 46.0852C68.5188 45.7697 68.4159 45.5047 68.3307 45.2902C68.2455 45.0757 68.1822 44.9222 68.1406 44.8297L65.4478 39L63.291 48.6278H64.6561L65.6348 44.0789C65.6888 43.8475 65.7293 43.6257 65.7563 43.4132C65.7833 43.2008 65.7989 42.9979 65.8031 42.8044C65.8571 42.9937 65.9205 43.1851 65.9932 43.3785C66.0659 43.572 66.1522 43.7718 66.2519 43.9779L68.6393 49L71.0267 44.0789C71.1306 43.8601 71.2168 43.6456 71.2854 43.4353C71.3539 43.225 71.4069 43.0147 71.4443 42.8044C71.4692 42.9811 71.4983 43.204 71.5316 43.4732ZM59.4655 48.6278L58.4308 46.2492H54.8154L53.7557 48.6278H52.1974L56.6168 39.0252L61.0301 48.6278H59.4655ZM49.3193 41.6372C48.8996 41.2755 48.456 41.0042 47.9885 40.8233C47.521 40.6425 47.0296 40.5521 46.5143 40.5521C45.5169 40.5521 44.7056 40.8759 44.0801 41.5237C43.4547 42.1714 43.142 43.0105 43.142 44.041C43.142 45.0379 43.4464 45.8601 44.0552 46.5079C44.664 47.1556 45.4317 47.4795 46.3585 47.4795C46.8987 47.4795 47.4129 47.3828 47.9012 47.1893C48.3895 46.9958 48.858 46.7035 49.3068 46.3123V48.0095C48.9079 48.2997 48.4737 48.5163 48.0041 48.6593C47.5345 48.8023 47.0254 48.8738 46.4769 48.8738C45.7787 48.8738 45.1336 48.7582 44.5414 48.5268C43.9492 48.2955 43.4288 47.9548 42.9799 47.5047C42.5353 47.0631 42.1935 46.5426 41.9546 45.9432C41.7156 45.3438 41.5961 44.7056 41.5961 44.0284C41.5961 43.3512 41.7156 42.715 41.9546 42.1199C42.1935 41.5247 42.5395 41.0021 42.9924 40.5521C43.4454 40.0978 43.9648 39.7539 44.5508 39.5205C45.1367 39.2871 45.7704 39.1703 46.452 39.1703C46.988 39.1703 47.4992 39.2492 47.9854 39.4069C48.4716 39.5647 48.9432 39.8034 49.4003 40.123L49.3193 41.6372ZM14 48.6278V39.3912H19.0927V40.6656H15.4835V42.9811H19.0927V44.2997H15.4835V47.2839H19.0927V48.6278H14ZM25.0376 48.6278V44.4006L21.9645 39.3912H23.5228L25.4365 42.5268C25.4822 42.6067 25.5394 42.7119 25.6079 42.8423C25.6765 42.9727 25.7461 43.1136 25.8167 43.265C25.8749 43.1178 25.9362 42.979 26.0006 42.8486C26.065 42.7182 26.1326 42.5983 26.2032 42.489L28.1667 39.3912H29.6503L26.5086 44.4006V48.6278H25.0376ZM32.921 39.3912V48.6278H38.0137V47.2839H34.4046V44.2997H38.0137V42.9811H34.4046V40.6656H38.0137V39.3912H32.921ZM57.9072 45H55.3639L56.2989 42.8927C56.3571 42.7455 56.4143 42.5846 56.4704 42.4101C56.5265 42.2355 56.5794 42.0473 56.6293 41.8454C56.6875 42.0599 56.7457 42.2545 56.8038 42.429C56.862 42.6036 56.9181 42.7581 56.9721 42.8927L57.9072 45Z" fill="white"/>
</g>
</g>
<defs>
<filter id="filter0_i" x="0" y="0" width="88" height="88" filterUnits="userSpaceOnUse" color-interpolation-filters="sRGB">
<feFlood flood-opacity="0" result="BackgroundImageFix"/>
<feBlend mode="normal" in="SourceGraphic" in2="BackgroundImageFix" result="shape"/>
<feColorMatrix in="SourceAlpha" type="matrix" values="0 0 0 0 0 0 0 0 0 0 0 0 0 0 0 0 0 0 127 0" result="hardAlpha"/>
<feOffset/>
<feGaussianBlur stdDeviation="17.5"/>
<feComposite in2="hardAlpha" operator="arithmetic" k2="-1" k3="1"/>
<feColorMatrix type="matrix" values="0 0 0 0 0 0 0 0 0 0 0 0 0 0 0 0 0 0 0.0452633 0"/>
<feBlend mode="normal" in2="shape" result="effect1_innerShadow"/>
</filter>
<linearGradient id="paint0_linear" x1="0.860536" y1="0" x2="0.860536" y2="86.2789" gradientUnits="userSpaceOnUse">
<stop stop-color="#43E2DF"/>
<stop offset="1" stop-color="#156A8D"/>
</linearGradient>
</defs>
</svg>

<svg xmlns="http://www.w3.org/2000/svg" xmlns:xlink="http://www.w3.org/1999/xlink" width="88" height="88"><defs><linearGradient id="a" x1="50%" x2="50%" y1="0%" y2="98.044%"><stop offset="0%" stop-color="#43E2DF"/><stop offset="100%" stop-color="#156A8D"/></linearGradient><filter id="c" width="139.8%" height="139.8%" x="-19.9%" y="-19.9%" filterUnits="objectBoundingBox"><feGaussianBlur in="SourceAlpha" result="shadowBlurInner1" stdDeviation="17.5"/><feOffset in="shadowBlurInner1" result="shadowOffsetInner1"/><feComposite in="shadowOffsetInner1" in2="SourceAlpha" k2="-1" k3="1" operator="arithmetic" result="shadowInnerInner1"/><feColorMatrix in="shadowInnerInner1" values="0 0 0 0 0 0 0 0 0 0 0 0 0 0 0 0 0 0 0.0452633304 0"/></filter><circle id="b" cx="44" cy="44" r="44"/></defs><g fill="none" fill-rule="evenodd"><use fill="url(#a)" xlink:href="#b"/><use fill="#000" filter="url(#c)" xlink:href="#b"/><path fill="#FFF" fill-rule="nonzero" d="M14 48.628V39.39h5.093v1.275h-3.61v2.315h3.61V44.3h-3.61v2.984h3.61v1.344H14zm11.038 0V44.4l-3.074-5.01h1.559l1.914 3.136a10.556 10.556 0 01.38.738c.058-.147.12-.286.184-.416s.132-.25.202-.36l1.964-3.098h1.483l-3.141 5.01v4.227h-1.471zm7.883 0V39.39h5.093v1.275h-3.61v2.315h3.61V44.3h-3.61v2.984h3.61v1.344H32.92zm16.398-6.99a4.557 4.557 0 00-1.33-.815 4.05 4.05 0 00-1.475-.27c-.997 0-1.808.323-2.434.97-.625.648-.938 1.488-.938 2.518 0 .997.304 1.82.913 2.467.609.648 1.377.971 2.303.971a4.15 4.15 0 001.543-.29 4.881 4.881 0 001.406-.877v1.697c-.4.29-.833.507-1.303.65a5.22 5.22 0 01-1.527.215 5.274 5.274 0 01-1.936-.347 4.488 4.488 0 01-1.561-1.022 4.548 4.548 0 01-1.025-1.562 5.123 5.123 0 01-.359-1.915c0-.677.12-1.313.359-1.908a4.606 4.606 0 011.037-1.568 4.569 4.569 0 011.559-1.031 5.09 5.09 0 011.901-.35c.536 0 1.047.078 1.533.236.487.158.958.396 1.415.716l-.08 1.514zM55.364 45h2.543l-.935-2.107a8.313 8.313 0 01-.168-.464 10.78 10.78 0 01-.175-.584 8.549 8.549 0 01-.33 1.048L55.364 45zm4.102 3.628l-1.035-2.379h-3.616l-1.06 2.379h-1.558l4.42-9.603 4.413 9.603h-1.564zm12.147-4.562a7.916 7.916 0 01-.081-.593c-.034-.269-.063-.492-.088-.669-.037.21-.09.421-.159.631-.068.21-.154.425-.258.644L68.639 49l-2.387-5.022a7.173 7.173 0 01-.449-1.174c-.004.194-.02.397-.047.61a6.586 6.586 0 01-.121.665l-.979 4.549h-1.365L65.448 39l2.693 5.83c.041.092.105.246.19.46.085.215.188.48.308.795.088-.265.225-.601.412-1.01.05-.109.087-.193.112-.252L71.793 39 74 48.628h-1.378l-1.01-4.562z"/></g></svg>
